X: 219
T: Joe Yates Polka
B: australian dance tunes
M:2/4
L:1/16
R: Polka
Q: 1/4=100
K:G
V:1 
|:cBAG F3E|E2D2 D3D|G2F2 A3B|A2G2 G2AB|!
cBAG F3E|E2D2 D3D|G2F2 B3A|G8:|!
|:d2B2 BAB2|c2e2 a3g|f2A2 cBA2|G2GB d3e|!
d2B2 BAB2|c2e2 a3g|f2A2 cBA2|G2BB G4:|!
|:A2AB A2AB|A2d2 f4|fge2 eAA2|d2f2 a4|!
A2AB A2AB|A2d2 f4|fge2 eAA2|d2f2 d4:|!
|:d2g2 B3d|d2c2 c4|DEFG ABcd|efga b4|!
d2g2 B3d|d2c2 c4|DEFG ABcd|g4 G4:|
% abcbook-tune_id 62a078502cf7b5256311e15d


% abcbook-boost 0
% abcbook-tablature 
% abcbook-transpose 
% abcbook-lastupdated 1654683750380
% abcbook-soundfonts 
% abcbook-repeats 1


